icon-svg/ondemand-aus.svg

<svg xmlns="http://www.w3.org/2000/svg" viewBox="0 0 24 24"><path fill="#44739e" d="M5.864 10.71a9.7 9.7 0 0 0 .545-3.01h-.045a10.9 10.9 0 0 0-1.834 2.472A7 7 0 0 0 4.818 8.2a7.6 7.6 0 0 0-1.341 1.825 5 5 0 0 0 .25-1.552A5.8 5.8 0 0 0 2.5 10.341a4.9 4.9 0 0 0-.5 2.182 4.6 4.6 0 0 0 .938-1.249 8.2 8.2 0 0 0-.438 2.294 8.2 8.2 0 0 0 1.27-1.659 9.7 9.7 0 0 0-.543 3.114 10.8 10.8 0 0 0 1.808-2.418 13.1 13.1 0 0 0-.808 4.327 14.3 14.3 0 0 0 3.092-4.546 14.3 14.3 0 0 0 1.227-5.318l-.046.045a13.9 13.9 0 0 0-2.636 3.597m7.626-1.303a2.95 2.95 0 0 0-2.639 1.616l1.368.977a1.31 1.31 0 0 1 1.271-.953 1.326 1.326 0 1 1 0 2.652 1.31 1.31 0 0 1-1.257-.925l-1.368.967a2.961 2.961 0 1 0 2.625-4.334m6.811.138v3.026L18.56 9.545h-1.644v5.65h1.699V12.17l1.741 3.025H22v-5.65Zm-11.715.857v3.951l2.776-1.962Z"/></svg>

<?xml version="1.0" encoding="UTF-8"?>
<svg width="24px" fill="#44739e" height="24px" viewBox="0 0 24 24" version="1.1" xmlns="http://www.w3.org/2000/svg" xmlns:xlink="http://www.w3.org/1999/xlink">
            <path d="M 5.864,10.71 A 9.65,9.65 0 0 0 6.409,7.7 H 6.364 A 10.85,10.85 0 0 0 4.53,10.172 6.977,6.977 0 0 0 4.818,8.2 7.553,7.553 0 0 0 3.477,10.025 4.954,4.954 0 0 0 3.727,8.473 5.786,5.786 0 0 0 2.5,10.341 4.9,4.9 0 0 0 2,12.523 4.6,4.6 0 0 0 2.938,11.274 8.156,8.156 0 0 0 2.5,13.568 8.178,8.178 0 0 0 3.77,11.909 9.736,9.736 0 0 0 3.227,15.023 10.82,10.82 0 0 0 5.035,12.605 13.071,13.071 0 0 0 4.227,16.932 14.291,14.291 0 0 0 7.319,12.386 14.25,14.25 0 0 0 8.546,7.068 L 8.5,7.113 A 13.872,13.872 0 0 0 5.864,10.71 Z M 13.49,9.407 a 2.945,2.945 0 0 0 -2.639,1.616 L 12.219,12 a 1.31,1.31 0 0 1 1.271,-0.953 1.326,1.326 0 1 1 0,2.652 1.309,1.309 0 0 1 -1.257,-0.925 l -1.368,0.967 A 2.961,2.961 0 1 0 13.49,9.407 Z m 6.811,0.138 v 3.026 L 18.56,9.545 h -1.644 v 5.65 h 1.699 V 12.17 l 1.741,3.025 H 22 V 9.545 Z M 8.586,10.402 v 3.951 l 2.776,-1.962 z"/>

</svg>
